svg/black/jpy.svg

<svg height="32" viewBox="0 0 32 32" width="32" xmlns="http://www.w3.org/2000/svg"><path d="m16 32c-8.836556 0-16-7.163444-16-16s7.163444-16 16-16 16 7.163444 16 16-7.163444 16-16 16zm1.5478395-13.2885714h5.0632716v-2.2885715h-4.1975309l6.0864198-8.9228571h-3.6466049l-4.800926 7.5342857-4.8009259-7.5342857h-3.7515432l6.0601852 8.9228571h-4.17129631v2.2885715h5.06327161v1.8771428h-5.06327161v2.2885715h5.06327161v2.6228571h3.095679v-2.6228571h5.0632716v-2.2885715h-5.0632716z" fill-rule="evenodd"/></svg>

<svg height="32" width="32" xmlns="http://www.w3.org/2000/svg"><path d="M16 32C7.163 32 0 24.837 0 16S7.163 0 16 0s16 7.163 16 16-7.163 16-16 16zm1.548-13.289h5.063v-2.288h-4.197L24.5 7.5h-3.647l-4.8 7.534L11.251 7.5H7.5l6.06 8.923H9.39v2.288h5.063v1.878H9.39v2.288h5.063V25.5h3.096v-2.623h5.063V20.59h-5.063z" fill-rule="evenodd"/></svg>
